X:1
T:Into My Heart
T:Into My Heart
T:Harry Dudley Clarke
T:Harry Dudley Clarke, 1924
T:© 1924, renewed 1952 Hope Publishing Company
C:Harry Dudley Clarke
Z:© 1924, renewed 1952 Hope Publishing Company
%%score ( 1 2 ) ( 3 4 )
L:1/8
M:6/4
K:F
V:1 treble 
V:2 treble 
V:3 bass 
V:4 bass 
V:1
 [FA]3 [FA] [FA]2 [CF]6 | [FA]3 [FA] [FA]2 [CF]4 [FA]2 | [Ec]3 [EB] [EA]2 [EG]4 [EB]2 | %3
w: 1.~In- to my heart,|in- to my heart, Come|in- to my heart, Lord|
w: 2.~Out of my heart,|out of my heart, Shine|out of my heart, Lord|
 B6 [FA]4 [Fc]2 | [Fd]4 [Fd]2 [Fc]4 F2 | B4 [EB]2 [FA]4 [A,C]2 | [B,D]2 [B,E]2 [CF]2 [CB]4 [CA]2 | %7
w: Je- sus; Come|in to- day, come|in to stay; Come|in- to my heart, Lord|
w: Je- sus; Shine|out to- day, shine|out al- way; Shine|out of my heart, Lord|
 [EG]6 [CF]6 |] %8
w: Je- sus.|
w: Je- sus.|
V:2
 x12 | x12 | x12 | (E2 F2 G2) x6 | x10 F2 | (F2 E2) x8 | x12 | x12 |] %8
V:3
 [F,C]3 [F,C] [F,C]2 [F,A,]6 | [F,C]3 [F,C] [F,C]2 [F,A,]4 F,2 | %2
 [C,G,]3 [C,D] [C,C]2 [C,B,]4 [C,G,]2 | G,4 [E,C]2 [F,C]4 [F,A,]2 | B,4 B,2 [A,C]4 [A,C]2 | %5
 [G,C]4 [C,C]2 [F,C]4 F,2 | [B,,F,]2 [B,,G,]2 [A,,F,]2 E,4 [C,F,]2 | (C4 B,2) [F,A,]6 |] %8
V:4
 x12 | x10 F,2 | x12 | C,2 D,2 x8 | B,4 B,2 x6 | x10 F,2 | x6 (G,,2 C,2) x2 | C,6 x6 |] %8

